X: 498
T: Polska från Malung efter Troskari Erik
R: Polska
S: efter Troskari Erik Persson
Z: Håkan Lidén
O: Dalarna
M: 3/4
L: 1/4
K: G
g/ | b/a/ g> f | e/d/ c> B | A/>F/ D/F/ A/>c/ | (3B/d/B/ G/>B/ d/>g/ | b/a/ g> f | 
e/d/ c> B | A/>F/ D/F/ A/>c/ | (3B/d/B/ G3/2 y :: D/ | G/B/ d B/G/ | F F> D | 
F/A/ c> B | G G> D | G/B/ d> c | e/>d/ c/B/ c/>B/  | A/>g/ f/<d/ f/>a/ | a/<f/ g3/2 :|]
(:musicend:)

(:music:)
